!!!!SEGMENT: pl-sa--77-a-ii-17--002_kotowicz--passio-ex-c-moll-placzcie-angeli.krn
!!!cenid: 17xx:342
!!!COM: Kotowicz
!!!COM-rismid: pe41024678
!!!CDT:
!!!CNT:
!!!OPR: Passio ex c-moll
!!!OTL: Płaczcie angeli
!!!OMV: 002
!!!PDT: 1767
!!!AGN:
!!!SMS-siglum: PL-SA
!!!SMS-shelfmark: 77/A II 17
!!!SMS-shelfwork: 001-002 M
!!!NIFC-rismid: 1001077252
!!!URL-scan: http://bc.bdsandomierz.pl/dlibra/publication/1354/edition/1322/content
!!!ONB-nifc: UWAGA: części Passio: Passio Domini nostri, Płaczcie angeli, Aprehendit ergo Pilatus, Coś uczyniło źródło niewinności, Orabat autem Jesus, Qui passus est
!!!key:
**kern	**fba	**kern	**dynam	**kern	**dynam	**kern	**kern	**text	**kern	**kern	**kern	**dynam
*part8	*	*part7	*part7	*part6	*part6	*part5	*part4	*part4	*part3	*part2	*part1	*part1
*staff8	*	*staff7	*	*staff6	*	*staff5	*staff4	*staff4	*staff3	*staff2	*staff1	*
*Iorgan	*	*Ivioln	*	*Ivioln	*	*Ibass	*Ivox	*	*Icor	*Icor	*Ioboe	*
*I"Organo	*	*I"Violino Secundo	*	*I"Violino Primo	*	*I"Basso	*I"Canto	*	*I"Corno Secundo in D#	*I"Corno Primo in D#	*I"Oboe Primo	*
*I'Org.	*	*I'V-no II	*	*I'V-no I	*	*I'B.	*I'C.	*	*I'C. in E♭	*I'C. I	*I'Ob. I	*
*clefF4	*	*clefG2	*	*clefG2	*	*clefF4	*clefC1	*	*clefG2	*clefG2	*clefG2	*
*	*	*	*	*	*	*	*	*	*ITrd5c9	*ITrd5c9	*	*
*k[b-e-a-]	*	*k[b-e-a-]	*	*k[b-e-a-]	*	*k[b-e-a-]	*k[b-e-a-]	*	*k[b-e-a-]	*k[b-e-a-]	*k[b-e-a-]	*
*c:	*	*c:	*	*c:	*	*c:	*c:	*	*c:	*c:	*c:	*
*M2/4	*	*M2/4	*	*M2/4	*	*M2/4	*M2/4	*	*M2/4	*M2/4	*M2/4	*
*	*	*	*below	*	*	*	*	*	*	*	*	*
=1	=1	=1	=1	=1	=1	=1	=1	=1	=1	=1	=1	=1
!LO:TX:a:t=Lentissima	!	!	!	!LO:TX:rj:a:t=Planctus \nPrimus	!	!	!LO:TX:a:t=6	!	!	!	!LO:TX:b:t=Płaczcie angeli	!
!LO:TX:rj:a:t=Planctus Primus	!	!	!	!LO:TX:a:t=Adagio	!	!LO:TX:a:t=Planctus \n1mus Tacet	!LO:TX:a:t=Solo	!	!LO:TX:a:t=Planctus \n 1mus Tacet	!LO:TX:a:t=Planctus Primus\nTacet Canto Solo	!LO:TX:a:B:t=Adagio	!
!	!	!LO:TX:b:t=Płaczcie Angeli	!	!LO:TX:b:t=Płaczcie angeli	!	!	!LO:N:vis=00	!	!	!	!LO:SIC:o:s:=:v:16,8,4,2|\right global	!
!	!	!LO:TX:a:t=P:problem=mixed beam	!	!	!	!	!	!	!	!	!	!
8C/L	.	8ee-\L	.	8gg\L	.	2ryy	0r	.	2ryy	2ryy	8gg\L	.
.	.	.	.	16qqaa-/LL	.	.	.	.	.	.	.	.
.	.	.	.	16qqgg/	.	.	.	.	.	.	.	.
.	.	.	.	16qqff/JJ	.	.	.	.	.	.	.	.
8C/	.	8ee-\	.	8gg\J	.	.	.	.	.	.	8gg\J	.
8C/	.	8e-/	.	8cc\L	.	.	.	.	.	.	8cc/L	.
.	.	.	.	8qqdd/	.	.	.	.	.	.	.	.
8C/J	.	8e-/J	.	8cc\J	.	.	.	.	.	.	8cc/J	.
=2	=2	=2	=2	=2	=2	=2	=2	=2	=2	=2	=2	=2
8GG/L	.	8f/L	.	(16dd\LL	.	2ryy	.	.	2ryy	2ryy	16dd\LL	.
.	.	.	.	16bn\J)	.	.	.	.	.	.	16bn\J	.
16C/L	.	16d/L	.	8cc\`J	.	.	.	.	.	.	8cc\J	.
16D\JJ	.	16e-/JJ	.	.	.	.	.	.	.	.	.	.
8E-/L	.	16r	.	16r	.	.	.	.	.	.	16r	.
!	!	!	!	!	!	!	!	!	!	!	!LO:N:vis=8	!
.	.	(16dd\LL	.	16ff\`LL	.	.	.	.	.	.	16ff\L	.
!	!	!	!	!	!	!	!	!	!	!	!LO:N:vis=8	!
8GG/J	.	16cc\	.	(16ff\'	.	.	.	.	.	.	16ff\	.
!	!	!	!	!	!	!	!	!	!	!	!LO:N:vis=8	!
.	.	16bn\JJ)	.	16dd\'JJ)	.	.	.	.	.	.	16dLd\J	.
=3	=3	=3	=3	=3	=3	=3	=3	=3	=3	=3	=3	=3
8GG/L	.	16cc\LL	.	(16ee-\LL	.	2ryy	.	.	2ryy	2ryy	16ee-\LL	.
.	.	(16g/	.	16bn\	.	.	.	.	.	.	16bn\	.
8GG/	.	16e-/)	.	16cc\)	.	.	.	.	.	.	16cc\	.
!	!	!LO:TX:a:t=P:problem=mixed beam	!	!	!	!	!	!	!	!	!	!
.	.	16ff\`JJ	.	16aa-\JJ	.	.	.	.	.	.	16aa-\JJ	.
8GG/	.	16ee-\`LL	.	16gg\LL	.	.	.	.	.	.	16gg\LL	.
.	.	(16bn\	.	16dd\	.	.	.	.	.	.	16dd\	.
8GG/J	.	16cc\	.	16ee-\	.	.	.	.	.	.	16ee-\	.
.	.	16dd\JJ)	.	16ff\JJ	.	.	.	.	.	.	16ff\JJ	.
!	!	!LO:LB:g=original	!	!LO:LB:g=original	!	!	!	!	!	!	!	!
=4	=4	=4	=4	=4	=4	=4	=4	=4	=4	=4	=4	=4
.	.	8qdd/	.	8qff/	.	.	.	.	.	.	.	.
8C/L	.	8cc\L	.	8ee-\L	.	2ryy	.	.	2ryy	2ryy	8ee-\L	.
16GG/L	.	8bn\J	.	8dd\J	.	.	.	.	.	.	8dd\J	.
16AA-/JJ	.	.	.	.	.	.	.	.	.	.	.	.
(8BB-/L	6	8r	.	16r	.	.	.	.	.	.	16r	.
.	.	.	.	16g/LL	.	.	.	.	.	.	16g/LL	.
8GG/J)	.	8e-/	.	16cc\	.	.	.	.	.	.	16cc\	.
.	.	.	.	16g/JJ	.	.	.	.	.	.	16g/JJ	.
=5	=5	=5	=5	=5	=5	=5	=5	=5	=5	=5	=5	=5
!	!	!	!	!	!	!	!LO:N:vis=0	!	!	!	!	!
8C/L	4_	8f/L	.	16a-/`LL	.	2ryy	1r	.	2ryy	2ryy	16a-/LL	.
.	.	.	.	(16a-/	.	.	.	.	.	.	16a-/	.
8C/	.	8f/J	.	16cc\	.	.	.	.	.	.	16cc\	.
.	.	.	.	16a-/JJ)	.	.	.	.	.	.	16a-/JJ	.
8C/	6 3	16e-`/LL	.	16g/LL	.	.	.	.	.	.	16g/LL	.
.	.	(16e-/	.	16cc\	.	.	.	.	.	.	16cc\	.
8BBn/J	6	16d/	.	16f/	.	.	.	.	.	.	16f/	.
.	.	16e-/JJ)	.	16dd\JJ	.	.	.	.	.	.	16dd\JJ	.
=6	=6	=6	=6	=6	=6	=6	=6	=6	=6	=6	=6	=6
!	!	!	!	!LO:TX:a:t=P:problem=mixed beam	!	!	!	!	!	!LO:TX:a:t=P:problem=mixed beam	!	!
8C/L	6 7	16G/LL	.	16G/`LL	.	2ryy	.	.	2ryy	2ryy	16g/LL	.
.	.	16a-/	.	(16ff\	.	.	.	.	.	.	16ff\	.
!LO:TX:a:t=P:problem=mixed beam	!	!	!	!	!	!	!	!	!	!	!	!
8A-\J	6 4	16g/	.	16ee-\	.	.	.	.	.	.	16ee-\	.
.	.	16f/JJ	.	16dd\JJ)	.	.	.	.	.	.	16dd\JJ	.
8G\L	.	16g/LL	.	16ee-\LL	.	.	.	.	.	.	16ee-\LL	.
.	.	16e-/	.	16cc\	.	.	.	.	.	.	16cc\	.
!LO:TX:a:t=P:problem=mixed beam	!	!	!	!	!	!	!	!	!	!	!	!
8GG/J	6 n	16f/	.	16dd\	.	.	.	.	.	.	16dd\	.
!	!	!	!	!	!	!	!LO:TX:b:t=Solo	!	!	!	!	!
.	.	16d/JJ	.	16bn\JJ	.	.	.	.	.	.	16bn\JJ	.
!	!	!	!	!	!	!	!	!	!	!	!LO:LB:g=original	!
=7	=7	=7	=7	=7	=7	=7	=7	=7	=7	=7	=7	=7
!	!	!	!	!LO:TX:a:t=P:problem=mixed beam	!	!	!	!	!	!	!	!
4C/	.	8e-/L	.	8cc\L	p	2ryy	8.gg\L	Płacz-	2ryy	2ryy	8cc\L	.
.	.	8c/	.	8cc\	.	.	.	.	.	.	8cc\	.
.	.	.	.	.	.	.	32ff\LL	.	.	.	.	.
.	.	.	.	.	.	.	32gg\JJJ	.	.	.	.	.
!	!	!	!	!	!	!	!	!	!	!	!LO:TX:a:t=P:problem=mixed beam	!
4r	.	8e-/	.	8e-/	.	.	8cc\	-cie	.	.	8e-/	.
.	.	8c/J	.	8e-/J	.	.	(16cc\LL	an-	.	.	8e-/J	.
.	.	.	.	.	.	.	16ee-\JJ)	.	.	.	.	.
=8	=8	=8	=8	=8	=8	=8	=8	=8	=8	=8	=8	=8
!LO:TX:a:t=6	!	!	!	!	!	!	!	!	!	!	!	!
.	.	.	.	.	.	.	8qqee-/	.	.	.	.	.
!LO:N:vis=00	!	!	!	!	!	!	!	!	!	!	!	!
0r	.	8G/L	.	16f/LL	.	2ryy	(16dd\LL	-ge-	2ryy	2ryy	16f/LL	.
.	.	.	.	16d/JJ	.	.	16bn\JJ)	.	.	.	16d/JJ	.
.	.	.	.	8qqd/	.	.	8qqb/	.	.	.	8qqd/	.
.	.	16c/L	.	4e-/	.	.	4cc\	-li	.	.	4e-/	.
.	.	16d/JJ	.	.	.	.	.	.	.	.	.	.
.	.	8e-/L	.	.	.	.	.	.	.	.	.	.
.	.	8c/J	.	8r	.	.	8r	.	.	.	8r	.
!	!	!	!	!LO:LB:g=original	!	!	!	!	!	!	!	!
=9	=9	=9	=9	=9	=9	=9	=9	=9	=9	=9	=9	=9
.	.	8g/L	.	(16bn\LL	.	2ryy	(16dd\LL	płacz-	2ryy	2ryy	16bn\LL	.
.	.	.	.	16an/	.	.	16cc\JJ)	.	.	.	16an/	.
.	.	8g/	.	16b\	.	.	16dd\LL	-cie	.	.	16b\	.
.	.	.	.	16cc\JJ)	.	.	16ee-\JJ	.	.	.	16cc\JJ	.
.	.	8G/	.	8dd\L	.	.	8ff\	du-	.	.	8dd\L	.
.	.	8G/J	.	16cc\L	.	.	16ee-\LL	-chy	.	.	16cc\L	.
.	.	.	.	16b\JJ	.	.	16dd\JJ	.	.	.	16bn\JJ	.
!	!	!LO:LB:g=original	!	!	!	!	!	!	!	!	!	!
=10	=10	=10	=10	=10	=10	=10	=10	=10	=10	=10	=10	=10
.	.	8c/L	.	8cc/L	.	2ryy	8ee-\	Swie-	2ryy	2ryy	8cc\L	.
.	.	.	.	.	.	.	8qqdd/	.	.	.	.	.
.	.	8g/	.	8g/	.	.	8cc\	-nte	.	.	8g/	.
.	.	8e-/	.	8e-/	.	.	4r	.	.	.	8e-/	.
.	.	8c/J	.	8c/J	.	.	.	.	.	.	8cc\J	.
!	!	!	!	!	!	!	!LO:LB:g=original	!	!	!	!	!
=11	=11	=11	=11	=11	=11	=11	=11	=11	=11	=11	=11	=11
.	.	.	.	.	.	.	(8qqee-/	.	.	.	.	.
.	.	8G/L	.	8bn\L	.	2ryy	4dd\)	Ra-	2ryy	2ryy	8bn\L	.
.	.	8G/	.	8b\	.	.	.	.	.	.	8b\	.
.	.	8G/	.	8b\	.	.	8g\	-dosc	.	.	8b\	.
.	.	8G/J	.	8b\J	.	.	8dd\	wam	.	.	8b\J	.
=12	=12	=12	=12	=12	=12	=12	=12	=12	=12	=12	=12	=12
!LO:N:vis=0	!	!	!	!	!	!	!	!	!	!	!	!
1r	.	8G/L	.	8cc\L	.	2ryy	16ee-\LL	dzi-	2ryy	2ryy	8cc\L	.
.	.	.	.	.	.	.	16cc\JJ	.	.	.	.	.
.	.	8G/	.	8bn\J	.	.	8dd\	-siai-	.	.	8bn\J	.
.	.	8G/	.	8dd\L	.	.	8ff\	-y	.	.	8dd\L	.
.	.	8G/J	.	16cc\L	.	.	(16ee-\LL	we-	.	.	16cc\L	.
.	.	.	.	16b\JJ	.	.	16dd\JJ)	.	.	.	16b\JJ	.
=13	=13	=13	=13	=13	=13	=13	=13	=13	=13	=13	=13	=13
.	.	8c/L	.	16cc\LL	.	2ryy	16ee-\LL	-se-	2ryy	2ryy	16cc\LL	.
.	.	.	.	16e-/	.	.	16cc\JJ	.	.	.	16ee-\	.
.	.	8f/	.	16f/	.	.	16dd\LL	-le	.	.	16dd\	.
.	.	.	.	16g/JJ	.	.	16ee-\JJ	.	.	.	16cc\JJ	.
!	!	!	!	!LO:TX:a:t=t	!	!	!	!	!	!	!	!
.	.	.	.	.	.	.	(8qqcc/	.	.	.	.	.
.	.	8g/	.	4c/	.	.	4bn\)	wzien-	.	.	4ccc\	.
.	.	8G/J	.	.	.	.	.	.	.	.	.	.
=14	=14	=14	=14	=14	=14	=14	=14	=14	=14	=14	=14	=14
!	!	!LO:TX:a:t=P:problem=mixed beam	!	!LO:TX:a:t=P:problem=mixed beam	!	!	!	!	!	!	!LO:TX:a:t=P:problem=mixed beam	!
8C/L	.	8c/L	.	8e-/L	.	2ryy	4cc\	-te	2ryy	2ryy	8e-/L	.
8C/	.	8cc\J	.	8gg\J	.	.	.	.	.	.	8gg\J	.
!	!	!	!LO:DY:b:t=for	!	!	!	!	!	!	!	!	!
8C/	.	16dd\LL	f	16ff\LL	.	.	4r	.	.	.	16ff\LL	.
.	.	16cc\	.	16ee-\	.	.	.	.	.	.	16ee-\	.
8C/J	.	16bn\	.	16dd\	.	.	.	.	.	.	16dd\	.
.	.	16cc\JJ	.	16cc\JJ	.	.	.	.	.	.	16cc\JJ	.
!	!	!	!	!	!	!	!	!	!	!	!LO:LB:g=original	!
=15	=15	=15	=15	=15	=15	=15	=15	=15	=15	=15	=15	=15
!	!	!	!	!	!	!	!LO:TX:a:t=7	!	!	!	!	!
!	!	!	!	!	!	!	!LO:N:vis=00	!	!	!	!	!LO:DY:t=piano
8GG/L	.	16d/LL	.	16bn\LL	.	2ryy	0r	.	2ryy	2ryy	16bn\LL	p
.	.	.	.	8qqcc/	.	.	.	.	.	.	8qqcc/	.
.	.	16f/JJ	.	16dd\JJ	.	.	.	.	.	.	16dd\JJ	.
.	.	8qqf/	.	8qqdd/	.	.	.	.	.	.	8qqdd/	.
8GG/	.	4e-/	.	4cc\	.	.	.	.	.	.	4cc\	.
8GG/	6 4	.	.	.	.	.	.	.	.	.	.	.
8GG/J	5 3	16cc\LL	.	(16ee-\LL	.	.	.	.	.	.	16ee-\LL	.
.	.	16b-\JJ	.	16dd\JJ)	.	.	.	.	.	.	16dd\JJ	.
!	!	!	!	!LO:LB:g=original	!	!	!	!	!	!	!	!
=16	=16	=16	=16	=16	=16	=16	=16	=16	=16	=16	=16	=16
!	!	!	!	!LO:TX:a:t=P:problem=mixed beam	!	!	!	!	!	!	!LO:TX:a:t=P:problem=mixed beam	!
4GG/	.	16g\`LL	.	16g/`LL	.	2ryy	.	.	2ryy	2ryy	16g/LL	.
.	.	(16ff\	.	(16aa-\	.	.	.	.	.	.	16aa-\	.
.	.	16ee-\	.	16gg\	.	.	.	.	.	.	16gg\	.
.	.	16dd\JJ)	.	16ff\JJ)	.	.	.	.	.	.	16ff\JJ	.
4r	.	16ee-\`LL	.	16gg\`LL	.	.	.	.	.	.	16gg\LL	.
.	.	(16bn\	.	(16dd\	.	.	.	.	.	.	16ee-\	.
.	.	16cc\	.	16ee-\	.	.	.	.	.	.	16ee-\	.
.	.	16dd\JJ)	.	16ff\JJ)	.	.	.	.	.	.	16ff\JJ	.
!	!	!LO:LB:g=original	!	!	!	!	!	!	!	!	!	!
=17	=17	=17	=17	=17	=17	=17	=17	=17	=17	=17	=17	=17
8C\L	.	16g/LL	.	(16ee-\LL	.	2ryy	.	.	2ryy	2ryy	16ee-\LL	.
.	.	16f/	.	16dd\	.	.	.	.	.	.	16dd\	.
8C\	.	16e-/	.	16cc\	.	.	.	.	.	.	16cc\	.
.	.	16g/JJ	.	16ee-\JJ)	.	.	.	.	.	.	16ee-\JJ	.
8F\	6	8f/L	.	8dd\L	.	.	.	.	.	.	8dd\L	.
8F\J	5	8e-/J	.	8cc\J	.	.	.	.	.	.	8cc\J	.
!LO:LB:g=original	!	!	!	!	!	!	!	!	!	!	!	!
=18	=18	=18	=18	=18	=18	=18	=18	=18	=18	=18	=18	=18
8G\L	.	4d/	.	8bn/L	.	2ryy	.	.	2ryy	2ryy	8bn/L	.
8G\	.	.	.	8g/J	.	.	.	.	.	.	8g/J	.
8E-\	6	4g/	.	4cc\	.	.	.	.	.	.	4cc\	.
8E-\J	.	.	.	.	.	.	.	.	.	.	.	.
=19	=19	=19	=19	=19	=19	=19	=19	=19	=19	=19	=19	=19
!	!	!	!	!	!	!	!LO:N:vis=0	!	!	!	!	!
8F\L	6	8a-/L	.	16cc\`LL	.	2ryy	1r	.	2ryy	2ryy	16cc\LL	.
.	.	.	.	(16ee-\	.	.	.	.	.	.	16ee-\	.
8F\	6	8a-/	.	16dd\	.	.	.	.	.	.	16dd\	.
.	.	.	.	16cc\JJ)	.	.	.	.	.	.	16cc\JJ	.
8F#X\	6	8a-/	.	16cc\`LL	.	.	.	.	.	.	16cc\LL	.
.	.	.	.	(16ee-\	.	.	.	.	.	.	16ee-\	.
8F#\J	#	8a-/J	.	16dd\	.	.	.	.	.	.	16dd\	.
.	.	.	.	16cc\JJ)	.	.	.	.	.	.	16cc\JJ	.
=20	=20	=20	=20	=20	=20	=20	=20	=20	=20	=20	=20	=20
8G\L	.	16ff\LL	.	16aa-\LL	.	2ryy	.	.	2ryy	2ryy	16aa-\LL	.
!	!	!LO:TX:a:t=P:problem=mixed beam	!	!	!	!	!	!	!	!	!	!
.	.	16d/	.	16cc\	.	.	.	.	.	.	16cc\	.
8Fn\	.	16e-/	.	16dd\	.	.	.	.	.	.	16dd\	.
.	.	16f/JJ	.	16ee-\JJ	.	.	.	.	.	.	16ee-\JJ	.
!	!	!	!	!LO:TX:a:t=t	!	!	!	!	!	!	!	!
8G\	.	8d/L	.	4bn\	.	.	.	.	.	.	4bn\	.
!LO:TX:a:t=P:problem=mixed beam	!	!	!	!	!	!	!	!	!	!	!	!
8GG/J	.	8d/J	.	.	.	.	.	.	.	.	.	.
=21	=21	=21	=21	=21	=21	=21	=21	=21	=21	=21	=21	=21
8C/L	.	8e-/L	.	8cc/L	.	2ryy	2r	.	2ryy	2ryy	8cc/L	.
8G\	.	8g/	.	8g/	.	.	.	.	.	.	8g/	.
!LO:TX:a:t=P:problem=mixed beam	!	!	!	!	!	!	!	!	!	!	!LO:TX:a:t=P:problem=mixed beam	!
8C/J	.	8c/J	.	8c/J	.	.	.	.	.	.	8ccc\J	.
8r	.	8r	.	8r	.	.	.	.	.	.	8r	.
!	!	!	!	!LO:LB:g=original	!	!	!	!	!	!	!LO:LB:g=original	!
=22	=22	=22	=22	=22	=22	=22	=22	=22	=22	=22	=22	=22
!	!	!	!LO:DY:b	!	!LO:DY:t=pia	!	!	!	!	!	!	!
8E-X\L	.	8g/L	p	8b-X\L	p	2ryy	4e-/	płacz-	2ryy	2ryy	8b-\L	.
8E-\	.	8g/	.	8b-\	.	.	.	.	.	.	8b-\	.
*	*	*	*	*	*	*	*Xtuplet	*	*	*	*	*
8E-\	.	8g/	.	8b-\	.	.	24e-/LL	-cie	.	.	8b-\	.
.	.	.	.	.	.	.	24f/	.	.	.	.	.
.	.	.	.	.	.	.	24g\JJ	.	.	.	.	.
!	!	!	!	!	!	!	!LO:TUP:a:problem=klamra łukowa	!	!	!	!	!
8E-\J	.	8g/J	.	8b-\J	.	.	24g\LL	we-	.	.	8b-\J	.
.	.	.	.	.	.	.	24f/	.	.	.	.	.
.	.	.	.	.	.	.	24e-/JJ	.	.	.	.	.
!	!	!	!	!	!	!	!LO:LB:g=original	!	!	!	!	!
=23	=23	=23	=23	=23	=23	=23	=23	=23	=23	=23	=23	=23
8E-\L	.	8g/L	.	8b-\L	.	2ryy	8b-\L	-so-	2ryy	2ryy	8b-\L	.
8E-\	.	8g/	.	8b-\	.	.	16ee-\L	.	.	.	8b-\	.
.	.	.	.	.	.	.	16dd\JJ	-łe	.	.	.	.
8E-\	.	8g/	.	8b-\	.	.	4ee-\	.	.	.	8b-\	.
8E-\J	.	8g/J	.	8b-\J	.	.	.	.	.	.	8b-\J	.
=24	=24	=24	=24	=24	=24	=24	=24	=24	=24	=24	=24	=24
!LO:TX:a:t=5	!	!	!	!	!	!	!	!	!	!	!	!
!LO:N:vis=00	!	!	!	!	!	!	!	!	!	!	!	!
0r	.	8e-/L	.	8b-\L	.	2ryy	8gg\	Nie-	2ryy	2ryy	8b-\L	.
.	.	8e-/J	.	16cc\L	.	.	16aa-\LL	-bie-	.	.	16cc\L	.
.	.	.	.	16b-\JJ	.	.	16gg\JJ	.	.	.	16b-\JJ	.
!	!	!LO:LB:g=original	!	!	!	!	!	!	!	!	!	!
.	.	8c/L	.	8a-/L	.	.	8ff\	-skie	.	.	8a-/L	.
.	.	8A-/J	.	8g/J	.	.	8ee-\	po-	.	.	8g/J	.
=25	=25	=25	=25	=25	=25	=25	=25	=25	=25	=25	=25	=25
.	.	8B-/L	.	8g/L	.	2ryy	(<8ee-\	-ko-	2ryy	2ryy	8g/L	.
.	.	.	.	.	.	.	8qqee-/	.	.	.	.	.
.	.	16B-/L	.	8f/J	.	.	8dd\)	-ie	.	.	8f/J	.
.	.	16c/JJ	.	.	.	.	.	.	.	.	.	.
.	.	8d/L	.	4r	.	.	4r	.	.	.	4r	.
.	.	8B-/J	.	.	.	.	.	.	.	.	.	.
=26	=26	=26	=26	=26	=26	=26	=26	=26	=26	=26	=26	=26
.	.	8B-/L	.	8dd\L	.	2ryy	4ff\	na	2ryy	2ryy	8dd\L	.
.	.	8B-/	.	8dd\	.	.	.	.	.	.	8dd\	.
.	.	8B-/	.	8dd\	.	.	8b-X\	dzien	.	.	8dd\	.
.	.	8B-/J	.	8ee-\J	.	.	8gg\	dzi-	.	.	8ee-\J	.
=27	=27	=27	=27	=27	=27	=27	=27	=27	=27	=27	=27	=27
.	.	8B-/L	.	16ff\LL	.	2ryy	8aa-\L	-siey-	2ryy	2ryy	16ff\LL	.
.	.	.	.	16ee-\JJ	.	.	.	.	.	.	16ee-\JJ	.
.	.	8B-/	.	4ff\	.	.	16gg\L	.	.	.	4ff\	.
.	.	.	.	.	.	.	16aa-\JJ	.	.	.	.	.
!	!	!	!	!	!	!	!LO:N:vis=4	!	!	!	!	!
!	!	!	!	!	!	!	!LO:SIC:s:=:v:8aa-	!	!	!	!	!
.	.	8B-/	.	.	.	.	8aa-\	-szy	.	.	.	.
.	.	8B-/J	.	8dd\	.	.	16ff\	y	.	.	8dd\	.
.	.	.	.	.	.	.	16ff\	sie-	.	.	.	.
=28	=28	=28	=28	=28	=28	=28	=28	=28	=28	=28	=28	=28
2r	.	8e-/L	.	8ee-\L	.	2ryy	8gg\	-ru-	2ryy	2ryy	8ee-\L	.
!	!	!	!	!	!	!	!LO:LB:g=original	!	!	!	!	!
.	.	8a-/	.	8cc\	.	.	24ee-\LL	-ctwo	.	.	8cc\	.
.	.	.	.	.	.	.	24ff\	.	.	.	.	.
.	.	.	.	.	.	.	24gg\JJ	.	.	.	.	.
!	!	!	!	!LO:TX:a:t=P:problem=mixed beam	!	!	!	!	!	!	!	!
.	.	8b-\	.	8b-\	.	.	4dd\t	swo-	.	.	8b-\	.
.	.	8B-/J	.	8f/J	.	.	.	.	.	.	8f/J	.
!LO:LB:g=original	!	!	!	!LO:LB:g=original	!	!	!	!	!	!	!	!
=29	=29	=29	=29	=29	=29	=29	=29	=29	=29	=29	=29	=29
.	.	.	.	.	.	.	8qqdd/	.	.	.	.	.
8E-\L	.	8gg\L	f	8bb-\L	.	2ryy	4ee-\	-ie	2ryy	2ryy	8bb-\L	.
.	.	.	.	16qqccc/LL	.	.	.	.	.	.	.	.
.	.	.	.	16qqbb-/	.	.	.	.	.	.	.	.
.	.	.	.	16qqaa-/JJ	.	.	.	.	.	.	.	.
8E-\	.	8gg\	.	8bb-\J	.	.	.	.	.	.	8bb-\J	.
!	!	!LO:TX:a:t=P:problem=mixed beam	!	!	!	!	!	!	!	!	!	!
8E-\	.	8g/	.	8ee-\L	.	.	4r	.	.	.	8ee-\L	.
.	.	.	.	8qee-/	.	.	.	.	.	.	.	.
8E-\J	.	8g/J	.	8ee-\J	.	.	.	.	.	.	8ee-\J	.
=30	=30	=30	=30	=30	=30	=30	=30	=30	=30	=30	=30	=30
!	!	!	!	!	!	!	!LO:TX:a:t=6	!	!	!	!	!
.	.	.	.	32qqgg/	.	.	.	.	.	.	8qgg/	.
*	*	*	*	*Xtuplet	*	*	*	*	*	*	*Xtuplet	*
!	!	!	!	!	!	!	!LO:N:vis=00	!	!	!	!	!
8BB-/L	.	16a-/LL	.	24ff\LL	.	2ryy	0r	.	2ryy	2ryy	24ff\LL	.
.	.	.	.	24ee-\	.	.	.	.	.	.	24ee-\	.
.	.	16f/J	.	.	.	.	.	.	.	.	.	.
.	.	.	.	24dd\J	.	.	.	.	.	.	24dd\J	.
.	.	.	.	8qdd/	.	.	.	.	.	.	8qqdd/	.
16E-\L	.	8g/J	.	8ee-\J	.	.	.	.	.	.	8ee-\J	.
16F\JJ	.	.	.	.	.	.	.	.	.	.	.	.
8G\L	.	8r	.	8r	.	.	.	.	.	.	8r	.
!	!	!	!	!	!	!	!	!	!	!	!LO:LB:g=original	!
8F\J	.	16b-\LL	.	16b-\LL	.	.	.	.	.	.	16b-\LL	.
.	.	16an/JJ	.	16cc\JJ	.	.	.	.	.	.	16cc\JJ	.
=31	=31	=31	=31	=31	=31	=31	=31	=31	=31	=31	=31	=31
8BB-/L	.	16b-\LL	.	(16dd\LL	.	2ryy	.	.	2ryy	2ryy	16dd\LL	.
!	!	!LO:TX:a:t=P:problem=mixed beam	!	!	!	!	!	!	!	!	!	!
.	.	16f/	.	16cc\	.	.	.	.	.	.	16cc\	.
8BB-/	.	16e-/	.	16b-\)	.	.	.	.	.	.	16b-\	.
.	.	16b-\JJ	.	16ff\`JJ	.	.	.	.	.	.	16dd\JJ	.
8BB-/	x 7	16B-/LL	.	16B-/`LL	.	.	.	.	.	.	16b-/LL	.
!	!	!LO:TX:a:t=P:problem=mixed beam	!	!LO:TX:a:t=P:problem=mixed beam	!	!	!	!	!	!	!LO:TX:a:t=P:problem=mixed beam	!
.	.	16ff\	.	(16aa-\	.	.	.	.	.	.	16aa-\	.
8BB-/J	6 5	16ee-\	.	16gg\	.	.	.	.	.	.	16gg\	.
.	.	16dd\JJ	.	16ff\JJ)	.	.	.	.	.	.	16ff\JJ	.
!	!	!LO:PB:g=original	!	!	!	!	!	!	!	!	!	!
=32	=32	=32	=32	=32	=32	=32	=32	=32	=32	=32	=32	=32
8BB-/L	6 4	8ee-\L	.	8gg\L	.	2ryy	.	.	2ryy	2ryy	8gg\L	.
16BB-/L	5 3	8dd\J	.	8ff\J	.	.	.	.	.	.	8ff\J	.
16C/JJ	.	.	.	.	.	.	.	.	.	.	.	.
8D/L	.	8r	.	8r	.	.	.	.	.	.	8r	.
8BB-/J	.	8d/	.	8f/	.	.	.	.	.	.	8f/	.
=33	=33	=33	=33	=33	=33	=33	=33	=33	=33	=33	=33	=33
8BB-/L	x 6	16e-/LL	.	16g/LL	.	2ryy	.	.	2ryy	2ryy	16gg\LL	.
.	.	16d/	.	16f/	.	.	.	.	.	.	16ff\	.
8BB-/	x 5	16B-/	.	16B-/	.	.	.	.	.	.	16b-\	.
.	.	16f/JJ	.	16a-/JJ	.	.	.	.	.	.	16aa-\JJ	.
8BB-/	6 4	8e-/L	.	8g/L	.	.	.	.	.	.	8gg\L	.
8BB-/J	.	8d/J	.	8f/J	.	.	.	.	.	.	8ff\J	.
!	!	!	!	!LO:PB:g=original	!	!	!	!	!	!	!	!
=34	=34	=34	=34	=34	=34	=34	=34	=34	=34	=34	=34	=34
!	!	!	!	!	!	!	!LO:N:vis=0	!	!	!	!	!
8BB-/L	.	8e-/L	.	8g/L	.	2ryy	1r	.	2ryy	2ryy	8g/L	.
8BB-/J	.	8d/J	.	8f/J	.	.	.	.	.	.	8f/J	.
8E-\L	6 4	4gg\	.	4bb-\	.	.	.	.	.	.	4bb-\	.
8E-\J	5 3	.	.	.	.	.	.	.	.	.	.	.
!LO:LB:g=original	!	!	!	!	!	!	!	!	!	!	!	!
=35	=35	=35	=35	=35	=35	=35	=35	=35	=35	=35	=35	=35
8A-\L	6	8f/L	.	8dd\L	.	2ryy	.	.	2ryy	2ryy	8ee-\L	.
8A-\J	7	16g/L	.	16ee-\L	.	.	.	.	.	.	16ee-\L	.
.	.	16a-/JJ	.	16ff\JJ	.	.	.	.	.	.	16ff\JJ	.
!LO:TX:a:t=P:problem=mixed beam	!	!	!	!LO:TX:a:t=t	!	!	!	!	!	!	!	!
8B-\L	.	8b-/L	.	4ff\	.	.	.	.	.	.	4ff\T	.
8BB-/J	.	8a-/J	.	.	.	.	.	.	.	.	.	.
=36	=36	=36	=36	=36	=36	=36	=36	=36	=36	=36	=36	=36
4E-\	.	8g/L	.	4ee-\	.	2ryy	4gg\	Płacz-	2ryy	2ryy	4ee-\	.
.	.	8c/	.	.	.	.	.	.	.	.	.	.
4r	.	8c/	.	16dd\LL	.	.	(16ff\LL	.	.	.	16dd\LL	.
!	!	!	!	!	!LO:DY:t=pia	!	!	!	!	!	!	!
.	.	.	.	16cc\	p	.	16ee-\JJ)	-cie	.	.	16cc\	.
.	.	8c/J	.	16bn\	.	.	(16dd\LL	.	.	.	16bn\	.
.	.	.	.	16cc\JJ	.	.	16ee-\JJ)	przy	.	.	16cc\JJ	.
=37	=37	=37	=37	=37	=37	=37	=37	=37	=37	=37	=37	=37
!LO:TX:a:t=6	!	!	!	!	!	!	!	!	!	!	!	!
.	.	.	.	.	.	.	8qdd/	.	.	.	.	.
!LO:N:vis=00	!	!	!	!	!	!	!	!	!	!	!	!
0r	.	8g/L	.	16e-/LL	.	2ryy	16cc\LL	smier-	2ryy	2ryy	16ee-\LL	.
.	.	.	.	16d/	.	.	16bn\J	.	.	.	16dd\J	.
.	.	.	.	.	.	.	8qqb/	.	.	.	.	.
.	.	16c/L	.	16e-/JJ	.	.	8cc\J	-ci	.	.	8ee-\J	.
.	.	16d/JJ	.	4r	.	.	.	.	.	.	.	.
.	.	8f/L	.	.	.	.	4r	.	.	.	4r	.
.	.	8c/J	.	.	.	.	.	.	.	.	.	.
.	.	.	.	16r	.	.	.	.	.	.	.	.
!	!	!LO:LB:g=original	!	!	!	!	!	!	!	!	!LO:LB:g=original	!
=38	=38	=38	=38	=38	=38	=38	=38	=38	=38	=38	=38	=38
.	.	8g/L	.	(16bn\LL	.	2ryy	16dd\LL	płacz-	2ryy	2ryy	16bn\LL	.
.	.	.	.	16a-/	.	.	16cc\JJ	.	.	.	16a-/	.
.	.	16G/L	.	16b\	.	.	16dd\LL	-cie	.	.	16b\	.
.	.	16An/JJ	.	16cc\JJ)	.	.	16ee-\JJ	.	.	.	16cc\JJ	.
.	.	8Bn/L	.	(8dd\L	.	.	8ff\	przy	.	.	8dd\L	.
.	.	8G/J	.	16cc\L	.	.	16ee-\LL	po-	.	.	16cc\L	.
.	.	.	.	16b\JJ)	.	.	16dd\JJ	.	.	.	16bn\JJ	.
=39	=39	=39	=39	=39	=39	=39	=39	=39	=39	=39	=39	=39
.	.	8c/L	.	8cc/L	.	2ryy	8ee-\	-grze-	2ryy	2ryy	8cc/L	.
.	.	.	.	.	.	.	8qqdd/	.	.	.	.	.
.	.	16c/L	.	8g/	.	.	8cc\	-bie	.	.	8g/J	.
.	.	16d/JJ	.	.	.	.	.	.	.	.	.	.
.	.	8e-/L	.	8e-/	.	.	4r	.	.	.	8ee-\L	.
.	.	8c/J	.	8c/J	.	.	.	.	.	.	8cc\J	.
!	!	!	!	!LO:LB:g=original	!	!	!LO:LB:g=original	!	!	!	!	!
=40	=40	=40	=40	=40	=40	=40	=40	=40	=40	=40	=40	=40
.	.	8G/L	.	4bn\	.	2ryy	4dd\	Kro-	2ryy	2ryy	4bn\	.
.	.	8G/	.	.	.	.	.	.	.	.	.	.
.	.	8G/	.	(16cc\LL	.	.	8ee-\	-la	.	.	16cc\LL	.
.	.	.	.	16b\J)	.	.	.	.	.	.	16b\J	.
.	.	8G/J	.	8cc\`J	.	.	(16dd\LL	wa-	.	.	8cc\J	.
.	.	.	.	.	.	.	16cc\JJ)	.	.	.	.	.
=41	=41	=41	=41	=41	=41	=41	=41	=41	=41	=41	=41	=41
!LO:N:vis=0	!	!	!	!	!	!	!	!	!	!	!	!
1r	.	8G/L	.	8bn\L	.	2ryy	8dd\	-sze-	2ryy	2ryy	8bn\L	.
.	.	8G/	.	8b\J	.	.	8g\	-go	.	.	8b\J	.
.	.	8G/	.	8dd\L	.	.	8ff\	a	.	.	8dd\L	.
.	.	8G/J	.	(16cc\L	.	.	16ee-\LL	Bo-	.	.	16cc\L	.
.	.	.	.	16b\JJ)	.	.	16dd\JJ	.	.	.	16b\JJ	.
=42	=42	=42	=42	=42	=42	=42	=42	=42	=42	=42	=42	=42
.	.	8c/L	.	16cc/LL	.	2ryy	16ee-\LL	-ga	2ryy	2ryy	16cc\LL	.
.	.	.	.	16e-/	.	.	16cc\JJ	.	.	.	16e-/	.
.	.	8f/	.	16f/	.	.	16dd\LL	na	.	.	16f/	.
.	.	.	.	16g/JJ	.	.	16ee-\JJ	.	.	.	16g/JJ	.
.	.	.	.	.	.	.	8qqcc/	.	.	.	.	.
.	.	8g/	.	8d/L	.	.	4bn\t	Nie-	.	.	8dd\L	.
.	.	8G/J	.	8d/J	.	.	.	.	.	.	8dd\J	.
=43	=43	=43	=43	=43	=43	=43	=43	=43	=43	=43	=43	=43
!	!	!	!	!	!LO:DY:b:t=forte	!	!	!	!	!	!	!
8C/L	.	8ee-\L	.	8gg\L	f	2ryy	4cc\	-bie	2ryy	2ryy	8gg\L	.
.	.	.	.	(16qqaa-/LL	.	.	.	.	.	.	.	.
.	.	.	.	16qqgg/	.	.	.	.	.	.	.	.
.	.	.	.	16qqff/JJ)	.	.	.	.	.	.	.	.
8C/	.	8ee-\	.	8gg\J	.	.	.	.	.	.	8gg\J	.
!	!	!LO:TX:a:t=P:problem=mixed beam	!	!	!	!	!	!	!	!	!	!
8C/	.	8e-/	.	8cc\L	.	.	4r	.	.	.	8cc\L	.
.	.	.	.	(8qqdd/	.	.	.	.	.	.	.	.
8C/J	.	8e-/J	.	8cc\J)	.	.	.	.	.	.	8cc\J	.
=44	=44	=44	=44	=44	=44	=44	=44	=44	=44	=44	=44	=44
!	!	!	!	!	!	!	!LO:TX:a:t=20	!	!	!	!	!
!	!	!	!	!	!	!	!LO:N:vis=00	!	!	!	!	!
8C/L	.	16f/LL	.	(16dd\LL	.	2ryy	0r	.	2ryy	2ryy	16dd\LL	.
.	.	16d/J	.	16b-\J)	.	.	.	.	.	.	16b-\J	.
16C/L	.	8e-/J	.	8cc\`J	.	.	.	.	.	.	8cc\J	.
16D\JJ	6	.	.	.	.	.	.	.	.	.	.	.
8E-/L	.	16r	.	16r	.	.	.	.	.	.	16r	.
.	.	16g/LL	.	16ee-`\LL	.	.	.	.	.	.	16ee-\LL	.
8C/J	.	16f/	.	16dd`\	.	.	.	.	.	.	16dd\	.
.	.	16e-/JJ	.	16cc`\JJ	.	.	.	.	.	.	16cc\JJ	.
!	!	!LO:LB:g=original	!	!LO:LB:g=original	!	!	!	!	!	!	!	!
=45	=45	=45	=45	=45	=45	=45	=45	=45	=45	=45	=45	=45
8GG/L	.	16f/LL	.	(16dd\LL	.	2ryy	.	.	2ryy	2ryy	16dd\LL	.
.	.	16d/	.	16bn\	.	.	.	.	.	.	16bn\	.
8GG/	.	16e-/	.	16cc\)	.	.	.	.	.	.	16cc\	.
!	!	!LO:TX:a:t=P:problem=mixed beam	!	!	!	!	!	!	!	!	!	!
.	.	16ff\JJ	.	16aa-\`JJ	.	.	.	.	.	.	16aa-\JJ	.
8GG/	.	8ee-\L	.	8gg\L	.	.	.	.	.	.	8gg\L	.
8GG/J	.	16bn\L	.	16dd\L	.	.	.	.	.	.	16dd\L	.
.	.	[16cc\JJ	.	16ff\JJ	.	.	.	.	.	.	16ff\JJ	.
!	!	!	!	!	!	!	!	!	!	!	!LO:LB:g=original	!
=46	=46	=46	=46	=46	=46	=46	=46	=46	=46	=46	=46	=46
.	.	.	.	8qff/	.	.	.	.	.	.	.	.
8GG/L	.	8cc\L]	.	8ee-\L	.	2ryy	.	.	2ryy	2ryy	8ee-\L	.
16GG/L	.	8bn\J	.	8dd\J	.	.	.	.	.	.	8dd\J	.
16AA-/JJ	.	.	.	.	.	.	.	.	.	.	.	.
8BBn/L	.	8r	.	16r	.	.	.	.	.	.	16r	.
.	.	.	.	16g/`LL	.	.	.	.	.	.	16g/LL	.
8GG/J	.	8e-/	.	16cc\`	.	.	.	.	.	.	16cc\	.
.	.	.	.	16g/`JJ	.	.	.	.	.	.	16g/JJ	.
=47	=47	=47	=47	=47	=47	=47	=47	=47	=47	=47	=47	=47
8C/L	.	8f/L	.	16a-/LL	.	2ryy	.	.	2ryy	2ryy	16a-/LL	.
.	.	.	.	16a-/	.	.	.	.	.	.	16a-/	.
8C/J	.	8f/J	.	16cc\	.	.	.	.	.	.	16cc\	.
.	.	.	.	16a-/JJ	.	.	.	.	.	.	16a-/JJ	.
!LO:LB:g=original	!	!	!	!	!	!	!	!	!	!	!	!
8C/L	.	16e-`/LL	.	16g/LL	.	.	.	.	.	.	16g/LL	.
.	.	16e-/	.	16cc\	.	.	.	.	.	.	16cc\	.
8BBn/J	6	(16d/	.	16f/	.	.	.	.	.	.	16f/	.
.	.	16f/JJ)	.	16dd\JJ	.	.	.	.	.	.	16dd\JJ	.
=48	=48	=48	=48	=48	=48	=48	=48	=48	=48	=48	=48	=48
!	!	!	!	!LO:TX:a:t=P:problem=mixed beam	!	!	!LO:N:vis=00	!	!	!	!	!
4C/	.	16G/LL	.	16G/`LL	.	2ryy	0r	.	2ryy	2ryy	16g/LL	.
!	!	!LO:TX:a:t=P:problem=mixed beam	!	!	!	!	!	!	!	!	!LO:TX:a:t=P:problem=mixed beam	!
.	.	16ff\	.	(16aa-\	.	.	.	.	.	.	16aa-\	.
.	.	16ee-\	.	16gg\	.	.	.	.	.	.	16gg\	.
.	.	16dd\JJ	.	16ff\JJ)	.	.	.	.	.	.	16ff\JJ	.
4r	.	16ee-\LL	.	16gg\`LL	.	.	.	.	.	.	16gg\LL	.
.	.	(16bn\	.	(16dd\	.	.	.	.	.	.	16dd\	.
.	.	16cc\	.	16ee-\	.	.	.	.	.	.	16ee-\	.
.	.	16dd\JJ)	.	16ff\JJ)	.	.	.	.	.	.	16ff\JJ	.
=49	=49	=49	=49	=49	=49	=49	=49	=49	=49	=49	=49	=49
.	.	.	.	8qff/	.	.	.	.	.	.	8qqff/	.
8C\L	.	16g/LL	.	16ee-\LL	.	2ryy	.	.	2ryy	2ryy	16ee-\LL	.
.	.	16f/	.	16dd\	.	.	.	.	.	.	16dd\	.
8C\	.	16e-/	.	16cc\	.	.	.	.	.	.	16cc\	.
.	.	16g/JJ	.	16ee-\JJ	.	.	.	.	.	.	16ee-\JJ	.
8F\	6	8f/L	.	8dd\L	.	.	.	.	.	.	8dd\L	.
8F\J	5	8e-/J	.	8cc\J	.	.	.	.	.	.	8cc\J	.
!	!	!	!	!LO:LB:g=original	!	!	!	!	!	!	!	!
=50	=50	=50	=50	=50	=50	=50	=50	=50	=50	=50	=50	=50
8G\L	n	4d/	.	8bn/L	.	2ryy	.	.	2ryy	2ryy	8bn/L	.
8G\	.	.	.	8g/J	.	.	.	.	.	.	8g/J	.
8E-\	6	4g/	.	4cc\T	.	.	.	.	.	.	4cc/T	.
8E-\J	.	.	.	.	.	.	.	.	.	.	.	.
!	!	!LO:LB:g=original	!	!	!	!	!	!	!	!	!	!
=51	=51	=51	=51	=51	=51	=51	=51	=51	=51	=51	=51	=51
8F\L	6	8a-/L	.	16cc\`LL	.	2ryy	.	.	2ryy	2ryy	16cc\LL	.
.	.	.	.	(16ee-\	.	.	.	.	.	.	16ee-\	.
8F\	5	8a-/	.	16dd\	.	.	.	.	.	.	16dd\	.
.	.	.	.	16cc\JJ)	.	.	.	.	.	.	16cc\JJ	.
8F#X\	6	8a-/	.	16cc\`LL	.	.	.	.	.	.	16cc\LL	.
.	.	.	.	(16ee-\	.	.	.	.	.	.	16ee-\	.
8F#\J	5	8a-/J	.	16dd\	.	.	.	.	.	.	16dd\	.
.	.	.	.	16cc\JJ)	.	.	.	.	.	.	16cc\JJ	.
=52	=52	=52	=52	=52	=52	=52	=52	=52	=52	=52	=52	=52
!	!	!LO:TX:a:t=P:problem=mixed beam	!	!	!	!	!LO:N:vis=0	!	!	!	!	!
8G\L	6	16ff\LL	.	16aa-\LL	.	2ryy	1r	.	2ryy	2ryy	16aa-\LL	.
.	.	16e-/	.	16cc\	.	.	.	.	.	.	16cc\	.
8Fn\J	7	16f/	.	16dd\	.	.	.	.	.	.	16dd\	.
.	.	16g/JJ	.	16ee-\JJ	.	.	.	.	.	.	16ee-\JJ	.
8G\L	.	4d/	.	4bn\t	.	.	.	.	.	.	4bn\	.
!LO:TX:a:t=P:problem=mixed beam	!	!	!	!	!	!	!	!	!	!	!	!
8GG/J	.	.	.	.	.	.	.	.	.	.	.	.
!	!	!	!	!	!	!	!	!	!	!	!LO:LB:g=original	!
=53	=53	=53	=53	=53	=53	=53	=53	=53	=53	=53	=53	=53
!	!	!	!	!LO:SIC:s:=:v:8qb	!	!	!	!	!	!	!	!
.	.	.	.	8qb-/	.	.	.	.	.	.	.	.
4C;;/	.	4e-/;	.	4cc\	.	2ryy	.	.	2ryy	2ryy	4cc\	.
4r	.	4r	.	4r	.	.	.	.	.	.	4r	.
==	==	==;	==	==;	==	==	==:||;	==	==	==	==;;	==
*-	*-	*-	*-	*-	*-	*-	*-	*-	*-	*-	*-	*-
!!!system-decoration: [(s1)][(s2,s3)][(s4,s5)][(s6,s7)][(s8)]
!!!RDF**kern: > = above
!!!RDF**kern: < = below
!!!RDF**dynam: p = pia
!!!RDF**dynam: f = for
!!!EED: Leszek Kubiak
!!!EST: 2020-12-01
!!!AIN: 1 bass 2 cor 1 oboe 1 organ 2 violn 1 vox
!!!ENC: Andrzej Gręziak
!!!END: 2020-04-27
